X: 6
T: The Regent's Hornpipe
O: 1820
%R: hornpipe, reel
B: A Musical Souvenir of the Royal Pavilion - Brighton"
F: https://www.mediafire.com/folder/d9iv45ggjx1fu/Royal_Pavilion_-_Brighton
Z: 2015 John Chambers <jc:trillian.mit.edu>
M: C
L: 1/8
K: F
% - - - - - - - - - - - - - - - - - - - - - - - - - - - - -
(cB) |\
(Ac)(Bd) c2f2 | (ed)(ec) f2A2 | (Bd)(GB) (Ac)(FA) | G2(gf) (edcB) |
(Ac)(Bd) c2f2 | (ed)(ec) f2(af) | (ed)(bg) (edce) | .f2([a2c2] [f2A2]) :|
|: (ef) |\
(ge)(fd) c2(de) | (fe)(fg) a2c2 | (dB)(fd) (cA)(FA) | G2(AB) (cdef) |
(ge)(fd) c2(de) | (fefg) a2(c^c) | (ed)(bg) (fe)(de) | .f2([a2c2] [f2A2]) :|
% - - - - - - - - - - Dance description - - - - - - - - - -
%%begintext align
%% First and second Couple set, First Couple fall in between the
%% second, Reel, down the middle, up again, & swing corners.
%%endtext
% %sep 2 2 400
